Pods/ProtonCore-UIFoundations/libraries/UIFoundations/Sources/Assets.xcassets/Images/IconSet/ic-arrow-out-square.imageset/ic-arrow-out-square.svg

<svg width="24" height="24" viewBox="0 0 24 24" fill="none" xmlns="http://www.w3.org/2000/svg">
<path d="M18 7.08671L18 12.75C18 13.1642 17.6642 13.5 17.25 13.5C16.8358 13.5 16.5 13.1642 16.5 12.75V8.56066L8.03033 17.0303C7.73744 17.3232 7.26256 17.3232 6.96967 17.0303C6.67678 16.7374 6.67678 16.2626 6.96967 15.9697L15.4393 7.5H11.25C10.8358 7.5 10.5 7.16421 10.5 6.75C10.5 6.33579 10.8358 6 11.25 6L16.9142 5.99999C16.9763 5.99991 17.0654 5.9998 17.1491 6.00677C17.3731 5.97654 17.6082 6.04751 17.7803 6.21967C17.9525 6.39186 18.0235 6.62694 17.9932 6.85097C18.0002 6.93484 18.0001 7.02425 18 7.08671Z" fill="#0C0C14"/>
<path fill-rule="evenodd" clip-rule="evenodd" d="M4.5 1.5C2.84315 1.5 1.5 2.84315 1.5 4.5V19.5C1.5 21.1569 2.84315 22.5 4.5 22.5H19.5C21.1569 22.5 22.5 21.1569 22.5 19.5V4.5C22.5 2.84315 21.1569 1.5 19.5 1.5H4.5ZM19.5 3H4.5C3.67157 3 3 3.67157 3 4.5V19.5C3 20.3284 3.67157 21 4.5 21H19.5C20.3284 21 21 20.3284 21 19.5V4.5C21 3.67157 20.3284 3 19.5 3Z" fill="#0C0C14"/>
</svg>

<svg xmlns="http://www.w3.org/2000/svg" width="24" height="24" viewBox="0 0 24 24">
  <g class="ic-arrow-out-square">
    <g class="Icon">
      <path d="M18 7.087v5.663a.75.75 0 0 1-1.5 0V8.56l-8.47 8.47a.75.75 0 0 1-1.06-1.06l8.47-8.47h-4.19a.75.75 0 0 1 0-1.5h5.664c.062 0 .151 0 .235.007a.749.749 0 0 1 .844.844c.007.084.007.173.007.236Z"/>
      <path fill-rule="evenodd" d="M4.5 1.5a3 3 0 0 0-3 3v15a3 3 0 0 0 3 3h15a3 3 0 0 0 3-3v-15a3 3 0 0 0-3-3h-15Zm15 1.5h-15A1.5 1.5 0 0 0 3 4.5v15A1.5 1.5 0 0 0 4.5 21h15a1.5 1.5 0 0 0 1.5-1.5v-15A1.5 1.5 0 0 0 19.5 3Z"/>
    </g>
  </g>
</svg>
